!!!COM: Frescobaldi, Girolamo
!!!CDT: 1583///-1643
!!!ONM: No. 26
!!!OTL: No. 26: Canzon Prima &agrave; 3. Due Canti e Basso
!!!OPR: Canzoni da sonare a una, due, tre et quattro, libro primo
!!!PPP: Venezia
!!!PDT: 1634
!!!URL: http://icking-music-archive.org/ByComposer/Frescobaldi.html
!!!ONB: Andrea Friggi, ed.
**kern	**kern	**kern	**kern
!Basso ad Organo	!Basso	!Canto Secondo	!Canto Primo
*staff4	*staff3	*staff2	*staff1
*Icello	*Icello	*Ivioln	*Ivioln
*clefC4	*clefF4	*clefG2	*clefG2
*k[]	*k[]	*k[]	*k[]
*met(C)	*met(C)	*met(C)	*met(C)
*M4/4	*M4/4	*M4/4	*M4/4
*MM120	*MM120	*MM120	*MM120
=1-	=1-	=1-	=1-
2.d\	1r	1r	4r
.	.	.	4dd\
.	.	.	4.ff\
4d\	.	.	.
.	.	.	8ff\
=2	=2	=2	=2
4c\	1r	1r	4ee\
4A\	.	.	8dd\L
.	.	.	8cc\J
2B-\	.	.	8dd\L
.	.	.	8ee\
.	.	.	8ff\
.	.	.	8gg\J
=3	=3	=3	=3
4F/	1r	1r	4aa\
4G/	.	.	8gg\L
.	.	.	8ff\J
2A\	.	.	2ee\
=4	=4	=4	=4
*clefF4	*	*	*
2D\	2D\	4r	8r
.	.	.	8aa\L
.	.	4a/	8ff\
.	.	.	8dd\J
2F\	4.F\	4.a/	8aa\L
.	.	.	16a\L
.	.	.	16b\JJ
.	.	.	8cc\L
.	8F\	8a/	8dd\J
=5	=5	=5	=5
4E\	4E\	4g/	8ee\L
.	.	.	8gg\
8D/L	8D/L	4cc\	8ff\
8C/J	8C/J	.	8ee\J
2D\	8D\L	4a/	2ff\
.	8E\	.	.
.	8F\	4dd\	.
.	8G\J	.	.
=6	=6	=6	=6
2AA/	4A\	4dd\	2r
.	4AA/	4cc#\	.
2D\	2D\	8dd\L	4r
.	.	8aa\	.
.	.	8ff\	4a/
.	.	8dd\J	.
=7	=7	=7	=7
4F\	4r	8aa\L	4.a/
.	.	16a\L	.
.	.	16b\JJ	.
4A\	4A\	8cc\L	.
.	.	8dd\J	8a/
2c\	4.c\	8ee\L	4g/
.	.	8gg\	.
.	.	8ff\	4cc\
.	8c\	8ee\J	.
=8	=8	=8	=8
4B\	4B\	4dd\	8dd\L
.	.	.	16ee\L
.	.	.	16dd\JJ
8A\L	8A\L	4.ee\	8cc\L
8G\J	8G\J	.	8b\J
4A\	4A\	.	8cc\L
.	.	16dd\LL	8a\J
.	.	16ee\JJ	.
4D\	4D\	[4ff\	[4dd\
=9	=9	=9	=9
4BB-/	4B-\	8ff\L]	8dd\L]
.	.	16ee\L	16cc\L
.	.	16ff\JJ	16dd\JJ
8AA/L	8A\L	4.gg\	4.ee\
8GG/J	8G\J	.	.
4C/	4c\	.	.
.	.	16ff\LL	16dd\LL
.	.	16gg\JJ	16ee\JJ
[4F\	[4F\	[4aa\	[4ff\
=10	=10	=10	=10
4F\]	4F\]	8aa\L]	8ff\L]
.	.	8aa\	8ff\
4G\	4G\	8gg\	8ee\
.	.	8ff\J	8dd\J
2A\	2A\	2ee\	8cc#\L
.	.	.	8b\J
.	.	.	4cc#\
=11	=11	=11	=11
2.D\	8r	2ff\	4r
.	8A\L	.	.
.	8F\	.	4dd\
.	8D\J	.	.
.	8A\L	4r	4.ff\
.	16D\L	.	.
.	16E\JJ	.	.
4D\	8F\L	4a/	.
.	8G\J	.	8ff\
=12	=12	=12	=12
2A\	8A\L	4.a/	4ee\
.	8c\	.	.
.	8B\	.	8dd\L
.	8A\J	8a/	8cc\J
4B\	8B\L	4g/	8dd\L
.	16c\L	.	8gg\
.	16B\JJ	.	.
8A\L	8A\L	4cc\	8ff\
8G\J	8G\J	.	8ee\J
=13	=13	=13	=13
4F\	8F\L	4a/	2ff\
.	8E\	.	.
4D\	8F\	4dd\	.
.	8D\J	.	.
2AA/	2A\	4dd\	2ee\
.	.	4cc#\	.
=14	=14	=14	=14
1D	4r	2dd\	8r
.	.	.	8aa\L
.	4D\	.	8ff\
.	.	.	8dd\J
.	4.D\	2r	8aa\L
.	.	.	16dd\L
.	.	.	16ee\JJ
.	.	.	8ff\L
.	8D\	.	16gg\L
.	.	.	16ff\JJ
=15	=15	=15	=15
4C/	4C/	8r	4ee\
.	.	8ee\L	.
4F\	4F\	8cc\	4a/
.	.	8a\J	.
4D\	4D\	16ff\LL	8r
.	.	16gg\	.
.	.	16ff\	8dd\L
.	.	16ee\JJ	.
4G\	4G\	8.dd\L	8b\
.	.	.	8g\J
.	.	16dd\Jk	.
=16	=16	=16	=16
4E\	4E\	16ee\LL	16cc\LL
.	.	16ff\	16dd\
.	.	16ee\	16cc\
.	.	16dd\JJ	16b\JJ
4F\	4F\	8.cc\L	8.a/L
.	.	16cc\Jk	16a/Jk
2D\	2D\	16ff\LL	16dd\LL
.	.	16gg\	16ee\
.	.	16ff\	16dd\
.	.	16ee\JJ	16cc\JJ
.	.	8.dd\L	8.b\L
.	.	16dd\Jk	16b\Jk
=17	=17	=17	=17
4C/	4r	2ee\	2cc\
4AA/	4AA/	.	.
2C/	4.C/	4r	2r
.	.	4ee\	.
.	8C/	.	.
=18	=18	=18	=18
4BB/	4BB/	4.gg\	4r
8AA/L	8AA/L	.	4dd\
8GG/J	8GG/J	8gg\	.
2D\	2D\	8ff\L	4.dd\
.	.	8aa\	.
.	.	8ff\	.
.	.	8dd\J	8dd\
=19	=19	=19	=19
2F\	2r	8aa\L	4cc\
.	.	16a\L	.
.	.	16b\JJ	.
.	.	8cc\L	4ff\
.	.	16dd\L	.
.	.	16cc\JJ	.
4G\	8r	4b\	4dd\
.	8G\L	.	.
8E\L	8E\	4ee\	[4gg\
8C\J	8C\J	.	.
=20	=20	=20	=20
4.F\	4.F\	8cc\L	4gg\]
.	.	8a\J	.
.	.	4.dd\	2ff\
8D\	8D\	.	.
2G\	4.G\	.	.
.	.	16cc\LL	.
.	.	16dd\JJ	.
.	.	4ee\	[4ee\
.	16F\LL	.	.
.	16G\JJ	.	.
=21	=21	=21	=21
4A\	4A\	4.ff\	8ee\L]
.	.	.	16dd\L
.	.	.	16cc\JJ
4B-\	4B-\	.	2dd\
.	.	16gg\LL	.
.	.	16ff\JJ	.
4G\	4G\	2ee\	.
4A\	4A\	.	4cc#\
=22	=22	=22	=22
1D	1D	1ff#	1dd
=23	=23	=23	=23
2G\	2r	1r	1r
2D\	2D\	.	.
=24	=24	=24	=24
1C#	2.C#/	1r	1r
.	4C#/	.	.
=25	=25	=25	=25
2D\	2D\	1r	1r
2AA/	2AA/	.	.
=26	=26	=26	=26
1BB-	1BB-	1r	1r
=27	=27	=27	=27
2FF#/	2FF#/	1r	2r
2GG/	2GG/	.	2gg\
=28	=28	=28	=28
1D	1D	1r	2.ff#\
.	.	.	4ff#\
=29	=29	=29	=29
2BB/	1r	1r	2gg\
2E\	.	.	2gg#\
=30	=30	=30	=30
2F\	1r	2r	2.aa\
2D\	.	2dd\	.
.	.	.	8gg\L
.	.	.	8ff\J
=31	=31	=31	=31
1A	1r	2.cc#\	4ee\
.	.	.	4dd\
.	.	.	2ee\
.	.	4cc#\	.
=32	=32	=32	=32
2D\	1r	2dd\	4dd\
.	.	.	2aa\
2BB/	.	2dd#\	.
.	.	.	8gg\L
.	.	.	8ff#\J
=33	=33	=33	=33
1E	1r	1ee	4gg#\
.	.	.	2aa\
.	.	.	4gg#\
=34	=34	=34	=34
2AA/	2r	2r	1aa
4A\	4A\	8r	.
.	.	16a/LL	.
.	.	16b/JJ	.
8A\L	8A\L	8cc\L	.
8A\J	8A\J	8a\J	.
=35	=35	=35	=35
4B-\	4B-\	8dd\L	8r
.	.	8dd\	8dd\
4G\	4G\	8cc\	8ee\L
.	.	8b-\J	16dd\L
.	.	.	16ee\JJ
2D\	8F\L	2a/	4.ff\
.	16D\L	.	.
.	16E\JJ	.	.
.	8F\L	.	.
.	8D\J	.	8ff\
=36	=36	=36	=36
4E\	4E\	2r	8gg\L
.	.	.	16ff\L
.	.	.	16gg\JJ
4F\	4F\	.	8aa\L
.	.	.	8aa\J
2G\	8r	4dd\	2gg\
.	16G\LL	.	.
.	16A\JJ	.	.
.	8B-\L	8dd\L	.
.	8G\J	8dd\J	.
=37	=37	=37	=37
4D\	4D\	4ff\	2r
8C/L	8C/L	4dd\	.
8BB-/J	8BB-/J	.	.
2AA/	2AA/	8cc\L	4a/
.	.	16a\L	.
.	.	16b\JJ	.
.	.	8cc\L	8a/L
.	.	8a\J	8a/J
=38	=38	=38	=38
4GG/	8r	8dd\L	4b-\
.	8D\	8dd\	.
4C/	8E\L	8cc\	4g/
.	16D\L	8b-\J	.
.	16E\JJ	.	.
4.F\	4.F\	8a\L	8r
.	.	8aa\	16a/LL
.	.	.	16bn/JJ
.	.	8aa\	8cc\L
8F\	8F\	8aa\J	8a\J
=39	=39	=39	=39
4G\	8G\L	4gg\	4b\
.	16F\L	.	.
.	16G\JJ	.	.
4A\	8A\L	8ff\L	4cc#\
.	8A\J	8ee\J	.
2B-\	2B-\	8dd\L	4dd\
.	.	8ff\	.
.	.	8ee\	[4gg\
.	.	8dd\J	.
=40	=40	=40	=40
2A\	2A\	8cc\L	4gg\]
.	.	16a\L	.
.	.	16b\JJ	.
.	.	8cc\L	4ff#\
.	.	8dd\J	.
2G\	2G\	2b\	2gg\
=41	=41	=41	=41
2C/	4r	4r	4r
.	4C/	4.ee\	4gg\
2D\	2D\	.	4.ff\
.	.	8dd\	.
.	.	4dd\	.
.	.	.	16gg\LL
.	.	.	16ff\JJ
=42	=42	=42	=42
2GG/	4r	8r	4.ee\
.	.	8cc#\	.
.	4GG/	2dd\	.
.	.	.	8ee\
2AA/	2AA/	.	2ee\
.	.	4cc#\	.
=43	=43	=43	=43
1D	1D	1dd	1ff#
=44	=44	=44	=44
*	*	*	*MM144
2D\	1r	4a/	2r
.	.	8a/L	.
.	.	8a/J	.
2G\	.	4b-\	8r
.	.	.	8dd\
.	.	4g/	8ee\L
.	.	.	16dd\L
.	.	.	16ee\JJ
=45	=45	=45	=45
2D\	8r	4.a/	8ff\L
.	16D\LL	.	8dd\
.	16E\JJ	.	.
.	8F\L	.	8aa\
.	8D\J	8a/	8aa\J
4G\	8G\L	8b/L	4gg\
.	8G\	16a/L	.
.	.	16b/JJ	.
8F\L	8F\	8cc\L	8aa\L
8E\J	8E\J	8cc\J	8gg\J
=46	=46	=46	=46
2D\	2D\	8dd\L	8ff\L
.	.	8ee\	8ee\J
.	.	8ff\	2dd\
.	.	8dd\J	.
2A\	4A\	2ee\	.
.	8A\L	.	4cc#\
.	8A\J	.	.
=47	=47	=47	=47
4B-\	4B-\	2r	2dd\
4G\	4G\	.	.
4F\	4F\	8r	2r
.	.	16a/LL	.
.	.	16b/JJ	.
4E\	4E\	8cc/L	.
.	.	8g/J	.
=48	=48	=48	=48
2D\	2D\	4.dd\	8r
.	.	.	8a/
.	.	.	8b/L
.	.	8dd\	16a/L
.	.	.	16b/JJ
2AA/	4r	8ee\L	4.cc\
.	.	16dd\L	.
.	.	16ee\JJ	.
.	4AA/	[4ff\	.
.	.	.	8cc\
=49	=49	=49	=49
4BB-/	4BB-/	8ff\L]	8.dd\L
.	.	8ff\J	.
.	.	.	16dd\Jk
4GG/	8r	4.gg\	8dd\L
.	8GG/	.	8dd\J
2C/	2C/	.	2ee\
.	.	16ff\LL	.
.	.	16gg\JJ	.
.	.	8aa\L	.
.	.	8gg\J	.
=50	=50	=50	=50
2D\	8r	2ff\	8r
.	8D\L	.	16dd\LL
.	.	.	16ee\JJ
.	8D\	.	8ff\L
.	8D\J	.	8dd\J
2E\	4E\	8r	2gg\
.	.	8g/L	.
.	8r	8g/	.
.	8E\	8g/J	.
=51	=51	=51	=51
2F\	4F\	4.a/	8r
.	.	.	8cc\
.	8r	.	8dd\L
.	8F\	8a/	16cc\L
.	.	.	16dd\JJ
4E\	8G\L	8b\L	4.ee\
.	8E\	8b\J	.
4AA/	8A\	4cc#\	.
.	8AA\J	.	8ee\
=52	=52	=52	=52
2D\	2D\	2dd\	2ff\
4E\	2r	8r	4r
.	.	16cc\LL	.
.	.	16dd\JJ	.
4C/	.	8ee\L	4gg\
.	.	8cc\J	.
=53	=53	=53	=53
2AA/	8r	2ff\	2aa\
.	8AA/L	.	.
.	8AA/	.	.
.	8AA/J	.	.
4BB-/	4BB-/	8r	8r
.	.	8ff\	8dd\
4GG/	4GG/	8gg\L	8ee\L
.	.	16ff\L	16dd\L
.	.	16gg\JJ	16ee\JJ
=54	=54	=54	=54
2D\	2D\	8aa\L	4.ff\
.	.	8a\	.
.	.	8a\	.
.	.	8b\J	16gg\LL
.	.	.	16ff\JJ
2AA/	2AA/	2cc#\	2ee\
=55	=55	=55	=55
1D	1D	1dd	1ff#
=56	=56	=56	=56
1G	1r	2r	1r
.	.	[2dd\	.
=57	=57	=57	=57
2F\	1r	4dd\]	1r
.	.	4dd\	.
2E\	.	2ee\	.
=58	=58	=58	=58
2D\	1r	2ff\	1r
2C#/	.	[2ee\	.
=59	=59	=59	=59
1D	1r	4ee\]	2r
.	.	8dd\L	.
.	.	8cc\J	.
.	.	4dd\	[2dd\
.	.	4a/	.
=60	=60	=60	=60
1GG	1r	8b-\L	4dd\]
.	.	8cc\	.
.	.	8b-\	4dd\
.	.	8a\J	.
.	.	2g/	2gg\
=61	=61	=61	=61
2D\	1r	1a	2ff\
2C#/	.	.	[2ee\
=62	=62	=62	=62
1D	1r	1r	4ee\]
.	.	.	8dd\L
.	.	.	8cc\J
.	.	.	4dd\
.	.	.	4a/
=63	=63	=63	=63
1GG	1r	1r	[2b-\
.	.	.	8b-\L]
.	.	.	8a\
.	.	.	8b-\
.	.	.	8cc\J
=64	=64	=64	=64
2D\	8r	1r	2a/
.	8D\L	.	.
.	8A\	.	.
.	8B\J	.	.
4C/	8c\L	.	2r
.	16A\L	.	.
.	16c\JJ	.	.
8BB/L	8B\L	.	.
8AA/J	8A\J	.	.
=65	=65	=65	=65
2GG#/	2G#\	8r	2r
.	.	8ee\L	.
.	.	8ee\	.
.	.	8dd\J	.
2AA/	2A\	8cc\L	8r
.	.	16a\L	8a\L
.	.	16b\JJ	.
.	.	8cc\L	8ee\
.	.	16dd\L	8ff#\J
.	.	16cc\JJ	.
=66	=66	=66	=66
2GGn/	2r	2b\	8gg\L
.	.	.	16dd\L
.	.	.	16gg\JJ
.	.	.	8ff\L
.	.	.	8ee\J
4.D\	8r	8r	4.ff\
.	8D/L	8a\L	.
.	8D/	8dd\	.
8C/	8C/J	8ee\J	8ee\
=67	=67	=67	=67
4BB-/	4BB-/	8ff\L	2dd\
.	.	16dd\L	.
.	.	16ff\JJ	.
4GG/	4GG/	8ee\L	.
.	.	8dd\J	.
2AA/	2AA/	4.cc#\	8r
.	.	.	8aa\L
.	.	.	8aa\
.	.	16b\LL	8gg\J
.	.	16cc#\JJ	.
=68	=68	=68	=68
2D\	2D\	4dd\	8ff\L
.	.	.	16dd\L
.	.	.	16ee\JJ
.	.	8a/L	8ff\L
.	.	8b/J	16gg\L
.	.	.	16ff\JJ
4AA/	8r	2cc\	2ee\
.	8AA/L	.	.
8E\L	8E/	.	.
8F#\J	8F#/J	.	.
=69	=69	=69	=69
4G\	8G\L	2r	8r
.	16E\L	.	8g\L
.	16G\JJ	.	.
8F\L	8F\L	.	8dd\
8E\J	8E\J	.	8ee\J
4D\	2D\	8r	8ff\L
.	.	8aa\L	16dd\L
.	.	.	16ff\JJ
4F\	.	8aa\	8ee\L
.	.	8aa\J	8dd\J
=70	=70	=70	=70
4E\	2r	8.gg\L	2ee\
.	.	16ff\Jk	.
4C/	.	8gg\L	.
.	.	8aa\J	.
4D\	8r	8.ff\L	8r
.	8D\L	.	8a/L
.	.	16ee\Jk	.
8A\L	8A\	8ff\L	8a/
8B\J	8B\J	16gg\L	8a/J
.	.	16ff\JJ	.
=71	=71	=71	=71
4c\	4c\	4ee\	8.g/L
.	.	.	16f/Jk
4C/	4C/	2ee\	8g/L
.	.	.	16a/L
.	.	.	16g/JJ
2D\	4.D\	.	8.f/L
.	.	.	16e/Jk
.	.	4dd\	8f/L
.	8D\	.	8g/J
=72	=72	=72	=72
1E	2.E\	8cc\L	8e/L
.	.	8cc\	8ee/
.	.	8b\	8dd/
.	.	8a\J	8cc/J
.	.	8g#/L	8b\L
.	.	16a/L	16cc\L
.	.	16b/JJ	16dd\JJ
.	4E\	8a/L	8cc#\L
.	.	8g#/J	8b\J
=73	=73	=73	=73
4AA/	8AA\L	2a/	2cc#\
.	8A\	.	.
4A\	8A\	.	.
.	8A\J	.	.
2G\	8.G\L	2r	2r
.	16F\Jk	.	.
.	8G\L	.	.
.	8A\J	.	.
=74	=74	=74	=74
4F\	8.F\L	8r	2r
.	.	8a\L	.
.	16E\Jk	.	.
8D/L	8D/L	8dd\	.
8C#/J	8C#/J	8ee\J	.
2D\	2D\	8ff\L	8r
.	.	16dd\L	8dd\L
.	.	16ff\JJ	.
.	.	8ee\L	8dd\
.	.	8dd\J	8dd\J
=75	=75	=75	=75
2AA/	8r	2ee\	8.cc\L
.	8AA/L	.	.
.	.	.	16b\Jk
.	8E/	.	8cc\L
.	8F#/J	.	16dd\L
.	.	.	16cc\JJ
2GG/	8G\L	8r	4b\
.	16D\L	8gg\L	.
.	16G\JJ	.	.
.	8Fn\L	8gg\	4cc#\
.	8E\J	8gg\J	.
=76	=76	=76	=76
2D\	2D\	8.ff\L	4dd\
.	.	16ee\Jk	.
.	.	8ff\L	2dd\
.	.	16gg\L	.
.	.	16ff\JJ	.
2AA/	2AA/	2ee\	.
.	.	.	4cc#\
=77	=77	=77	=77
0D	0D	0ff#	0dd
==	==	==	==
*-	*-	*-	*-
!!!ENC: Craig Stuart Sapp
!!!END: 2004/12/14/
